X: 181
T: The Black Hoe
T: Jig, G
L: 1/16
M: 6/8
K: G
|: f2| g2d2B2 B2A2B2| G2B2A2 G2B2d2| g2d2B2 B2A2B2| G2B2d2 e4f2| 
g2d2B2 B2A2B2| G2B2A2 G2B2d2| g2f2e2 e2d2B2| A2B2d2 e4:| 
|: f2| g2f2g2 b2a2g2| f2e2f2 a2f2d2| g2f2g2 b2a2g2| f2e2d2 e4f2| 
g2f2g2 b2a2g2| f2e2f2 a2f2d2| g2f2e2 e2d2B2| A2B2d2 e4:| 
D: The Beatons of Mabou, Rounder 7011
D: Donald Angus Beaton, A Musical Legacy, DAB4-1985
D: Wendy MacIsaac, That's What You Get, WMT004
B: DunGreen Collection
